X: 3021
T: CAPTAIN ROBERTSON LUDES
Q:"Strathspey."
R: Strathspey.
%R:strathspey
B: James Kerr "Merry Melodies" v.3 p.5 #21
Z: 2016 John Chambers <jc:trillian.mit.edu>
M: C
L: 1/16
K: D
uF2 |\
vA,D3 D3uE vF3vGuA3uB | A3Bd3F GFED B,D3 |\
A,D3D3E F3GA3B | A3FE3F DDD2 D2 ::\
uf2 |\
d3fa3f a3ba3f |
e3de3f dB3 B3d |\
[1 d3fa3f a3ba3f | e3de3f ddd2 d2 :|\
[2 A3Bd3e f3ga3f | e3de3f ddd2 d2 |]

%%sep 1 1 500
%%sep 1 1 500

